X: 25
M:2/4
L:1/16
K:F
vCFF2 Acc2|BG"4"AF EGEC|CFF2 Acc2|df"0"eg .f2a2|
fgaf g"0"ece|defd cAFA|fgaf gece|dfeg .f2(fg)|
afge fdec|defd cAFA|afge fdec|dfeg f2 (ucB)|


